X:1
T:Chicken-Foot and Sparrow-Grass
M:2/4
L:1/8
S:Horner
B:Bayard - Dance to the Fiddle, March to the Fife (1981)
K:G
G/A/|BG (3A/B/A/G|.E.G D/E/G/A/|BG (3A/B/A/G|Bd d/e/d/c/|
BG (3A/B/A/G|.E.G DG/A/|(3B/c/B/G Ad|BG G:|
|:z|gd ed|Bd de/f/|gd (3e/=f/e/d|BGGz|
gd ed|Bd dd/^c/|(3B/c/B/G Ad/c/|BGG:||

